app/assets/images/payment_icons/simpl.svg

<svg xmlns="http://www.w3.org/2000/svg" role="img" viewBox="0 0 38 24" width="38" height="24" aria-labelledby="pi-simpl"><title id="pi-simpl">Simpl</title><g clip-path="url(#pi-clip0_3721_39148)"><path opacity="0.07" d="M3 0H35C36.66 0 38 1.34 38 3V21C38 22.66 36.66 24 35 24H3C1.34 24 0 22.66 0 21V3C0 1.34 1.34 0 3 0Z" fill="black"></path><path d="M1 3C1 1.9 1.9 1 3 1H35C36.1 1 37 1.9 37 3V21C37 22.1 36.1 23 35 23H3C1.9 23 1 22.1 1 21V3Z" fill="white"></path><path fill-rule="evenodd" clip-rule="evenodd" d="M11.2539 10.6243C11.0711 10.3356 11.0787 9.95068 11.3201 9.70887L11.586 9.44261C11.6926 9.33588 11.6926 9.163 11.586 9.05625C10.0297 7.49764 7.4974 7.49757 5.9411 9.05625C4.59659 10.4028 4.41446 12.4782 5.39315 14.0232C5.57598 14.3118 5.56838 14.6966 5.32698 14.9384L5.06103 15.2047C4.95447 15.3115 4.95449 15.4843 5.06107 15.591C6.61737 17.1496 9.14962 17.1497 10.7059 15.591C12.0504 14.2446 12.2326 12.1692 11.2539 10.6243ZM6.32802 9.4427C7.56046 8.20844 9.50205 8.10644 10.8517 9.13656C10.9339 9.19929 10.9385 9.31959 10.8654 9.39276L10.6086 9.65001C10.544 9.71465 10.4412 9.71913 10.3673 9.6654C9.29602 8.88618 7.78832 8.98012 6.82231 9.9475C5.85623 10.9151 5.76248 12.4253 6.54093 13.4982C6.59446 13.572 6.58999 13.6745 6.52559 13.739L6.27855 13.9864C6.20535 14.0597 6.08476 14.0552 6.02203 13.9727C4.99376 12.6211 5.09578 10.6768 6.32802 9.4427ZM5.7971 15.5111C7.14678 16.5412 9.08837 16.4392 10.3208 15.205C11.5531 13.9708 11.655 12.0267 10.6267 10.675C10.564 10.5926 10.4434 10.588 10.3702 10.6613L10.1232 10.9087C10.0588 10.9731 10.0544 11.0757 10.1079 11.1494C10.8864 12.2225 10.7926 13.7327 9.82653 14.7003C8.86051 15.6676 7.35282 15.7616 6.28148 14.9823C6.20761 14.9286 6.10482 14.933 6.04027 14.9977L5.7834 15.2549C5.71035 15.3281 5.71491 15.4484 5.7971 15.5111Z" fill="#15B79E"></path><path d="M33.6694 9.34231V14.7369H32.6685V9.34231H33.6694Z" fill="#15B79E"></path><path d="M29.9162 10.769C30.4604 10.769 30.9147 10.9654 31.2791 11.3582C31.6387 11.7462 31.8185 12.2265 31.8185 12.7991C31.8185 13.367 31.6364 13.8473 31.272 14.24C30.9076 14.6328 30.4533 14.8292 29.9091 14.8292C29.4312 14.8292 29.0266 14.6494 28.6953 14.2897V16.3269H27.6945V10.8684H28.6882V11.344C29.0195 10.9607 29.4288 10.769 29.9162 10.769ZM29.7388 13.9135C30.0558 13.9135 30.3137 13.8071 30.5125 13.5941C30.7112 13.3812 30.8106 13.1185 30.8106 12.8062C30.8106 12.4939 30.7112 12.2313 30.5125 12.0183C30.3137 11.8054 30.0558 11.6989 29.7388 11.6989C29.4264 11.6989 29.1709 11.8054 28.9722 12.0183C28.7734 12.2313 28.674 12.4939 28.674 12.8062C28.674 13.1185 28.7734 13.3812 28.9722 13.5941C29.1709 13.8071 29.4264 13.9135 29.7388 13.9135Z" fill="#15B79E"></path><path d="M25.118 10.7619C25.5818 10.7619 25.958 10.9063 26.2466 11.1949C26.5448 11.4836 26.6938 11.8858 26.6938 12.4016V14.7369H25.693V12.5862C25.693 12.2975 25.622 12.0751 25.48 11.9189C25.3428 11.7628 25.1559 11.6847 24.9193 11.6847C24.6637 11.6847 24.4579 11.7699 24.3017 11.9402C24.1456 12.1059 24.0675 12.3306 24.0675 12.6146V14.7369H23.0667V12.5933C23.0667 12.3093 22.9957 12.0869 22.8537 11.926C22.7165 11.7651 22.5272 11.6847 22.2859 11.6847C22.0398 11.6847 21.8363 11.7699 21.6754 11.9402C21.5192 12.1106 21.4412 12.3377 21.4412 12.6217V14.7369H20.4403V10.8684H21.4199V11.4221C21.5287 11.2186 21.6896 11.0577 21.9025 10.9394C22.1155 10.8164 22.3474 10.7572 22.5982 10.7619C22.8442 10.7619 23.069 10.8211 23.2725 10.9394C23.4807 11.0577 23.6345 11.2257 23.7339 11.4434C23.8758 11.2304 24.0699 11.0648 24.3159 10.9465C24.562 10.8235 24.8294 10.7619 25.118 10.7619Z" fill="#15B79E"></path><path d="M19.5283 9.8179C19.5283 9.99299 19.4691 10.1397 19.3508 10.258C19.2325 10.3763 19.0858 10.4354 18.9107 10.4354C18.7356 10.4354 18.5889 10.3763 18.4706 10.258C18.3523 10.1397 18.2932 9.99299 18.2932 9.8179C18.2932 9.64281 18.3523 9.49848 18.4706 9.38491C18.5889 9.2666 18.7356 9.20745 18.9107 9.20745C19.0858 9.20745 19.2325 9.2666 19.3508 9.38491C19.4691 9.49848 19.5283 9.64281 19.5283 9.8179ZM19.4076 10.8684V14.7369H18.4067V10.8684H19.4076Z" fill="#15B79E"></path><path d="M15.6348 14.8221C15.2231 14.8221 14.8422 14.7369 14.492 14.5666C14.1418 14.3962 13.8603 14.1549 13.6473 13.8426L14.2507 13.1115C14.6009 13.5989 15.0646 13.8426 15.6419 13.8426C15.8596 13.8426 16.0394 13.7905 16.1814 13.6864C16.3233 13.5823 16.3943 13.4474 16.3943 13.2818C16.3943 13.0641 16.2358 12.882 15.9187 12.7353C15.8809 12.7163 15.7082 12.6477 15.4006 12.5294C15.1592 12.4348 14.9534 12.3401 14.783 12.2455C14.2294 11.9284 13.9525 11.4931 13.9525 10.9394C13.9525 10.4993 14.1182 10.1349 14.4494 9.84629C14.7854 9.5529 15.216 9.4062 15.7413 9.4062C16.4227 9.4062 16.9977 9.64281 17.4662 10.116L16.9054 10.8826C16.7634 10.7312 16.586 10.6129 16.373 10.5277C16.1648 10.4378 15.959 10.3929 15.7555 10.3929C15.5473 10.3929 15.3817 10.4402 15.2586 10.5348C15.1403 10.6247 15.0812 10.7454 15.0812 10.8968C15.0812 11.1003 15.2231 11.273 15.5071 11.415L16.0252 11.6421C16.3186 11.7652 16.5316 11.8574 16.6641 11.919C17.2603 12.2076 17.5584 12.643 17.5584 13.225C17.5584 13.6935 17.381 14.0768 17.0261 14.3749C16.6712 14.6731 16.2074 14.8221 15.6348 14.8221Z" fill="#15B79E"></path></g><defs><clipPath id="pi-clip0_3721_39148"><rect width="38" height="24" fill="white"></rect></clipPath></defs></svg>

<svg xmlns="http://www.w3.org/2000/svg" width="38" height="24" aria-labelledby="pi-simpl" role="img" viewBox="0 0 38 24"><title id="pi-simpl">Simpl</title><g clip-path="url(#pi-clip0_3721_39148)"><path fill="#fff" d="M0 0h38v24H0z"/><path fill="#fff" d="M1 3c0-1.1.9-2 2-2h32c1.1 0 2 .9 2 2v18c0 1.1-.9 2-2 2H3c-1.1 0-2-.9-2-2z"/><path fill="#15B79E" fill-rule="evenodd" d="M11.254 10.624c-.183-.288-.175-.673.066-.915l.266-.266a.273.273 0 0 0 0-.387 3.99 3.99 0 0 0-5.645 0 4.01 4.01 0 0 0-.548 4.967c.183.289.175.674-.066.915l-.266.267a.273.273 0 0 0 0 .386 3.99 3.99 0 0 0 5.645 0 4.01 4.01 0 0 0 .548-4.967M6.328 9.443a3.45 3.45 0 0 1 4.524-.306.17.17 0 0 1 .013.256l-.256.257a.186.186 0 0 1-.242.015 2.74 2.74 0 0 0-3.545.283 2.75 2.75 0 0 0-.281 3.55.186.186 0 0 1-.015.241l-.247.247a.17.17 0 0 1-.257-.013 3.46 3.46 0 0 1 .306-4.53m-.53 6.068a3.45 3.45 0 0 0 4.523-.306 3.46 3.46 0 0 0 .306-4.53.17.17 0 0 0-.257-.014l-.247.248a.186.186 0 0 0-.015.24 2.75 2.75 0 0 1-.281 3.551 2.74 2.74 0 0 1-3.546.282.186.186 0 0 0-.24.016l-.258.257a.17.17 0 0 0 .014.256" clip-rule="evenodd"/><path fill="#15B79E" d="M33.67 9.342v5.395h-1.001V9.342zM29.916 10.769q.816 0 1.363.59.54.58.54 1.44 0 .852-.547 1.441t-1.363.59q-.716 0-1.214-.54v2.037h-1v-5.459h.993v.476q.497-.575 1.228-.575m-.177 3.145q.476 0 .773-.32.3-.32.299-.788 0-.468-.299-.788a1 1 0 0 0-.773-.32q-.469 0-.767.32a1.1 1.1 0 0 0-.298.788q0 .469.298.788t.767.32M25.118 10.762q.696 0 1.129.433.447.432.447 1.207v2.335h-1.001v-2.15q0-.434-.213-.668-.206-.234-.56-.234a.8.8 0 0 0-.618.255q-.234.248-.235.675v2.122h-1v-2.144q0-.426-.213-.667-.206-.24-.568-.241a.8.8 0 0 0-.61.255q-.235.256-.235.682v2.115h-1v-3.869h.979v.554q.164-.304.482-.483.32-.184.696-.177.369 0 .675.177.312.179.46.504.214-.32.583-.496a1.8 1.8 0 0 1 .802-.185M19.528 9.818q0 .263-.177.44a.6.6 0 0 1-.44.177.6.6 0 0 1-.44-.177.6.6 0 0 1-.178-.44q0-.263.178-.433a.6.6 0 0 1 .44-.178q.263 0 .44.178a.57.57 0 0 1 .177.433m-.12 1.05v3.869h-1.001v-3.869zM15.635 14.822q-.618 0-1.143-.255a2.13 2.13 0 0 1-.845-.724l.604-.732q.525.732 1.39.732a.9.9 0 0 0 .54-.157.48.48 0 0 0 .213-.404q0-.327-.475-.547-.057-.028-.518-.206a5 5 0 0 1-.618-.284q-.83-.475-.83-1.306 0-.66.496-1.093.504-.44 1.292-.44 1.023 0 1.725.71l-.56.767a1.5 1.5 0 0 0-.533-.355 1.55 1.55 0 0 0-.618-.135q-.312 0-.496.142a.43.43 0 0 0-.178.362q0 .305.426.518l.518.227q.44.184.64.277.893.433.893 1.306 0 .703-.532 1.15-.533.447-1.391.447"/></g><defs><clipPath id="pi-clip0_3721_39148"><path fill="#fff" d="M0 0h38v24H0z"/></clipPath></defs></svg>
